src/img/icon-phone-updated.svg

<svg width="20" height="21" viewBox="0 0 20 21" fill="none" xmlns="http://www.w3.org/2000/svg">
<g clip-path="url(#clip0)">
<path fill-rule="evenodd" clip-rule="evenodd" d="M4.45784 8.45608C4.72352 8.18918 6.31508 7.78968 6.18223 6.05751C6.04939 5.52457 5.85098 4.05919 5.5853 3.19262C4.92194 1.06084 4.78908 0.195078 2.79993 0.594618C1.87175 0.794796 1.00911 1.66051 0.611437 2.46036C-3.03584 8.65645 10.5593 23.246 16.9255 20.0474C17.7217 19.6479 18.6499 18.8481 18.9147 17.9824C19.5116 16.1834 18.5834 15.7171 16.262 14.9183C15.3339 14.6514 14.14 14.2519 13.6094 14.1184C11.885 13.8515 11.4873 15.5171 11.2217 15.7172C8.8341 15.0509 4.9883 10.9208 4.45786 8.45543L4.45784 8.45608ZM15.3898 10.7635C15.252 11.7453 13.6695 11.5494 13.8074 10.5668C14.22 7.81734 11.9493 5.46115 8.99112 5.65712C7.95915 5.72268 7.89023 4.21723 8.9222 4.15168C12.9132 3.88942 15.9402 7.03234 15.3898 10.7636L15.3898 10.7635ZM19.0482 11.6388C18.984 12.6284 17.5089 12.4962 17.5732 11.5066C18.022 6.62396 14.5588 2.79701 9.81238 2.92928C8.85042 2.92928 8.85042 1.4119 9.81238 1.4119C15.3923 1.27973 19.5614 5.83273 19.0482 11.6388L19.0482 11.6388Z" fill="#222222"/>
</g>
<defs>
<clipPath id="clip0">
<rect width="19.0909" height="20" fill="white" transform="translate(0 0.5)"/>
</clipPath>
</defs>
</svg>

<svg xmlns="http://www.w3.org/2000/svg" fill="#222" width="20" height="21" viewBox="0 0 20 21">
  <path d="M4.458 8.456c.266-.267 1.857-.666 1.724-2.398-.133-.533-.331-1.999-.597-2.865C4.922 1.06 4.79.195 2.8.595 1.872.795 1.01 1.66.61 2.46c-3.646 6.196 9.95 20.786 16.316 17.587.796-.4 1.724-1.199 1.989-2.065.597-1.799-.332-2.265-2.653-3.064-.928-.267-2.122-.666-2.653-.8-1.724-.267-2.122 1.4-2.387 1.6-2.388-.667-6.234-4.797-6.764-7.263zm10.932 2.308c-.138.981-1.72.785-1.583-.197.413-2.75-1.858-5.106-4.816-4.91-1.032.066-1.1-1.44-.069-1.505 3.99-.263 7.018 2.88 6.468 6.612zm3.658.875c-.064.99-1.54.857-1.475-.132.449-4.883-3.014-8.71-7.76-8.578-.963 0-.963-1.521 0-1.521 5.58-.133 9.748 4.42 9.235 10.226z"/>
</svg>
